apps/app.mento.org/public/tokens/GBPm.svg

<svg width="220" height="220" viewBox="0 0 220 220" fill="none" xmlns="http://www.w3.org/2000/svg">
<path d="M110 220C170.751 220 220 170.751 220 110C220 49.2487 170.751 0 110 0C49.2487 0 0 49.2487 0 110C0 170.751 49.2487 220 110 220Z" fill="#510DC1"/>
<path d="M110 23C158.049 23 197 61.9512 197 110C197 158.049 158.049 197 110 197C61.9512 197 23 158.049 23 110C23 61.9512 61.9512 23 110 23Z" stroke="url(#paint0_linear_2057_349)" stroke-width="36"/>
<path d="M110 202C160.81 202 202 160.81 202 110C202 59.1898 160.81 18 110 18C59.1898 18 18 59.1898 18 110C18 160.81 59.1898 202 110 202Z" fill="#510DC1"/>
<path d="M71.1026 148.62C85.9707 140.806 89.1245 131.79 86.2711 121.12H69V109.699H81.7656C78.1612 102.486 75.0073 96.0246 75.0073 85.9563C75.0073 68.3743 89.5751 55 111.652 55C135.982 55 149.799 68.6749 149.799 91.9672H130.275C130.425 78.5929 122.766 72.1311 111.652 72.1311C101.289 72.1311 94.6813 77.6913 94.6813 86.8579C94.6813 95.2732 98.7363 102.486 102.19 109.699H135.381V121.12H106.245C107.747 130.888 104.143 140.505 96.1832 147.869H151V165H71.1026V148.62Z" fill="url(#paint1_linear_2057_349)"/>
<defs>
<linearGradient id="paint0_linear_2057_349" x1="110" y1="5" x2="110" y2="215" gradientUnits="userSpaceOnUse">
<stop stop-color="white"/>
<stop offset="0.45" stop-color="#569CFF"/>
<stop offset="1" stop-color="white"/>
</linearGradient>
<linearGradient id="paint1_linear_2057_349" x1="110" y1="55" x2="110" y2="165" gradientUnits="userSpaceOnUse">
<stop stop-color="#E2DBFF"/>
<stop offset="0.975962" stop-color="#FBFAFF"/>
</linearGradient>
</defs>
</svg>

<svg xmlns="http://www.w3.org/2000/svg" width="220" height="220" fill="none" viewBox="0 0 220 220"><path fill="#510dc1" d="M110 220c60.751 0 110-49.249 110-110S170.751 0 110 0 0 49.249 0 110s49.249 110 110 110"/><path stroke="url(#a)" stroke-width="36" d="M110 23c48.049 0 87 38.951 87 87s-38.951 87-87 87-87-38.951-87-87 38.951-87 87-87Z"/><path fill="#510dc1" d="M110 202c50.81 0 92-41.19 92-92s-41.19-92-92-92-92 41.19-92 92 41.19 92 92 92"/><path fill="url(#b)" d="M71.103 148.62c14.868-7.814 18.022-16.83 15.168-27.5H69v-11.421h12.766c-3.605-7.213-6.759-13.674-6.759-23.743C75.007 68.374 89.575 55 111.652 55c24.33 0 38.147 13.675 38.147 36.967h-19.524c.15-13.374-7.509-19.836-18.623-19.836-10.363 0-16.97 5.56-16.97 14.727 0 8.415 4.054 15.628 7.508 22.841h33.191v11.421h-29.136c1.502 9.768-2.102 19.385-10.062 26.749H151V165H71.103z"/><defs><linearGradient id="a" x1="110" x2="110" y1="5" y2="215" gradientUnits="userSpaceOnUse"><stop stop-color="#fff"/><stop offset=".45" stop-color="#569cff"/><stop offset="1" stop-color="#fff"/></linearGradient><linearGradient id="b" x1="110" x2="110" y1="55" y2="165" gradientUnits="userSpaceOnUse"><stop stop-color="#e2dbff"/><stop offset=".976" stop-color="#fbfaff"/></linearGradient></defs></svg>
